Numix-GalliumOS/16/devices/network-workgroup.svg

<?xml version="1.0" encoding="UTF-8" standalone="no"?>
<svg
   xmlns:dc="http://purl.org/dc/elements/1.1/"
   xmlns:cc="http://creativecommons.org/ns#"
   xmlns:rdf="http://www.w3.org/1999/02/22-rdf-syntax-ns#"
   xmlns:svg="http://www.w3.org/2000/svg"
   xmlns="http://www.w3.org/2000/svg"
   xmlns:sodipodi="http://sodipodi.sourceforge.net/DTD/sodipodi-0.dtd"
   xmlns:inkscape="http://www.inkscape.org/namespaces/inkscape"
   width="16"
   height="16"
   viewBox="0 0 16 16"
   id="svg2907"
   version="1.1"
   inkscape:version="0.91 r"
   sodipodi:docname="samba.svg">
  <metadata
     id="metadata2915">
    <rdf:RDF>
      <cc:Work
         rdf:about="">
        <dc:format>image/svg+xml</dc:format>
        <dc:type
           rdf:resource="http://purl.org/dc/dcmitype/StillImage" />
      </cc:Work>
    </rdf:RDF>
  </metadata>
  <defs
     id="defs2913" />
  <sodipodi:namedview
     pagecolor="#ffffff"
     bordercolor="#666666"
     borderopacity="1"
     objecttolerance="10"
     gridtolerance="10"
     guidetolerance="10"
     inkscape:pageopacity="0"
     inkscape:pageshadow="2"
     inkscape:window-width="640"
     inkscape:window-height="480"
     id="namedview2911" />
  <path
     style="fill:#8e9da8"
     d="M 1.730469 2.636719 C 1.503906 2.679688 1.320312 2.902344 1.320312 3.132812 L 1.320312 12.699219 C 1.324219 12.957031 1.554688 13.191406 1.816406 13.195312 L 14.019531 13.195312 C 14.277344 13.191406 14.511719 12.957031 14.511719 12.699219 L 14.511719 4.492188 C 14.511719 4.238281 14.277344 4.003906 14.019531 4 L 9.238281 4 L 9.238281 3.132812 C 9.230469 2.875 9 2.644531 8.742188 2.636719 L 1.816406 2.636719 C 1.785156 2.636719 1.757812 2.636719 1.730469 2.636719 Z M 7.585938 5.972656 L 7.917969 5.972656 C 9.371094 5.972656 10.554688 7.15625 10.554688 8.613281 C 10.554688 10.066406 9.371094 11.25 7.585938 11.25 C 6.460938 11.25 5.277344 10.066406 5.277344 8.613281 C 5.277344 7.15625 6.460938 5.972656 7.585938 5.972656 Z M 7.628906 6.34375 C 7.527344 6.359375 7.417969 6.378906 7.320312 6.40625 L 7.011719 6.921875 C 7.035156 6.921875 7.058594 6.921875 7.089844 6.941406 C 7.257812 7.035156 7.332031 7.117188 7.382812 7.128906 C 7.429688 7.136719 7.636719 6.851562 7.484375 7.167969 C 7.332031 7.484375 7.269531 7.59375 7.089844 7.664062 C 7.082031 7.664062 7.0625 7.65625 7.050781 7.664062 C 7.003906 7.714844 6.941406 7.78125 6.863281 7.847656 C 6.699219 7.996094 6.617188 8.007812 6.617188 8.15625 C 6.617188 8.304688 6.628906 8.433594 6.515625 8.632812 C 6.398438 8.828125 6.300781 8.832031 6.347656 8.984375 C 6.398438 9.132812 6.433594 9.386719 6.347656 9.269531 C 6.265625 9.15625 6.3125 8.933594 6.246094 9.0625 C 6.1875 9.179688 6.050781 9.214844 6.039062 9.332031 C 6.039062 9.347656 6.035156 9.375 6.039062 9.394531 C 6.082031 9.539062 6.328125 9.34375 6.328125 9.457031 C 6.328125 9.570312 6.113281 9.5625 6.164062 9.664062 C 6.214844 9.761719 6.410156 9.46875 6.578125 9.519531 C 6.742188 9.566406 6.632812 9.597656 6.78125 9.664062 C 6.933594 9.726562 7.011719 9.789062 7.011719 9.890625 C 7.011719 9.988281 7.492188 9.953125 7.441406 10.117188 C 7.390625 10.28125 7.34375 10.246094 7.195312 10.425781 C 7.113281 10.527344 7.039062 10.582031 6.988281 10.632812 C 7.058594 10.683594 7.074219 10.699219 7.152344 10.671875 C 7.257812 10.636719 7.132812 10.597656 7.214844 10.546875 C 7.234375 10.539062 7.246094 10.519531 7.257812 10.507812 C 7.269531 10.5 7.273438 10.496094 7.296875 10.488281 C 7.347656 10.472656 7.441406 10.46875 7.667969 10.46875 C 8.128906 10.46875 8.371094 10.488281 8.371094 10.488281 C 8.371094 10.488281 8.511719 10.488281 8.371094 10.570312 C 8.265625 10.628906 8.066406 10.726562 8.039062 10.753906 C 8.050781 10.753906 8.054688 10.761719 8.082031 10.753906 C 8.292969 10.695312 8.597656 10.65625 8.679688 10.632812 C 8.714844 10.621094 8.898438 10.515625 9.050781 10.445312 C 9.054688 10.429688 9.066406 10.417969 9.070312 10.40625 L 9.050781 10.40625 C 8.933594 10.355469 8.832031 10.121094 8.867188 10.054688 C 8.898438 9.988281 8.988281 9.933594 9.070312 9.765625 C 9.15625 9.597656 9.140625 9.738281 8.90625 9.433594 C 8.671875 9.136719 8.546875 9.453125 8.433594 9.355469 C 8.316406 9.253906 8.078125 9.164062 7.980469 8.984375 C 7.878906 8.800781 7.917969 8.933594 7.917969 8.734375 C 7.917969 8.535156 7.910156 8.675781 7.957031 8.507812 C 8.007812 8.339844 8.140625 8.316406 8.308594 8.199219 C 8.332031 8.183594 8.347656 8.191406 8.371094 8.179688 C 8.332031 8.144531 8.289062 8.054688 8.183594 7.949219 C 8.183594 7.949219 8.285156 7.738281 8.371094 7.703125 C 8.449219 7.671875 8.507812 7.695312 8.617188 7.722656 C 8.625 7.707031 8.613281 7.703125 8.617188 7.664062 C 8.632812 7.527344 8.574219 7.601562 8.574219 7.519531 C 8.574219 7.433594 8.605469 7.53125 8.722656 7.5 C 8.839844 7.464844 8.832031 7.21875 8.945312 7.25 C 9.0625 7.285156 9.074219 7.214844 9.175781 7.066406 C 9.273438 6.914062 9.164062 6.988281 9.03125 6.921875 C 8.894531 6.855469 9.023438 7.03125 8.988281 7.148438 C 8.953125 7.265625 8.855469 7.191406 8.742188 6.941406 C 8.625 6.691406 8.714844 6.789062 8.78125 6.589844 C 8.792969 6.554688 8.808594 6.527344 8.824219 6.507812 C 8.605469 6.414062 8.371094 6.367188 8.125 6.34375 C 8.121094 6.355469 8.125 6.351562 8.125 6.363281 C 8.097656 6.585938 7.984375 6.445312 7.9375 6.464844 C 7.890625 6.492188 7.585938 6.925781 7.585938 6.878906 C 7.585938 6.832031 7.628906 6.757812 7.628906 6.757812 C 7.628906 6.757812 7.667969 6.554688 7.628906 6.34375 Z M 8.574219 7.230469 C 8.628906 7.238281 8.675781 7.285156 8.699219 7.332031 C 8.714844 7.359375 8.695312 7.367188 8.679688 7.375 C 8.679688 7.375 8.699219 7.441406 8.699219 7.457031 C 8.699219 7.472656 8.65625 7.476562 8.574219 7.457031 C 8.515625 7.441406 8.578125 7.425781 8.617188 7.394531 L 8.535156 7.394531 C 8.507812 7.394531 8.5 7.378906 8.496094 7.375 C 8.496094 7.378906 8.484375 7.386719 8.496094 7.394531 C 8.53125 7.441406 8.484375 7.402344 8.433594 7.414062 C 8.378906 7.429688 8.425781 7.378906 8.453125 7.332031 C 8.453125 7.332031 8.488281 7.363281 8.496094 7.375 C 8.503906 7.351562 8.515625 7.308594 8.515625 7.25 C 8.535156 7.242188 8.558594 7.226562 8.574219 7.230469 Z M 9.832031 7.375 C 9.75 7.4375 9.652344 7.574219 9.566406 7.664062 C 9.414062 7.8125 9.648438 7.832031 9.730469 7.847656 C 9.816406 7.863281 9.894531 7.808594 10.058594 7.808594 C 10.058594 7.800781 10.042969 7.792969 10.039062 7.785156 C 10.019531 7.789062 10.003906 7.785156 9.980469 7.785156 C 9.882812 7.785156 9.933594 7.714844 9.957031 7.578125 C 9.921875 7.511719 9.875 7.4375 9.835938 7.375 Z M 8.804688 7.683594 C 8.769531 7.671875 8.722656 7.707031 8.660156 7.746094 C 8.703125 7.8125 8.566406 7.984375 8.496094 8.117188 C 8.492188 8.121094 8.476562 8.132812 8.472656 8.136719 C 8.617188 8.113281 8.839844 8.15625 9.339844 8.28125 C 9.339844 8.28125 9.53125 8.214844 9.566406 8.28125 C 9.578125 8.304688 9.632812 8.316406 9.710938 8.320312 C 9.914062 8.242188 9.8125 8.195312 9.8125 8.035156 C 9.8125 7.867188 9.554688 8.035156 9.585938 7.949219 C 9.621094 7.867188 9.558594 7.882812 9.441406 7.765625 C 9.328125 7.648438 9.339844 8.054688 9.257812 7.972656 C 9.171875 7.890625 9.167969 7.957031 9.132812 7.890625 C 9.101562 7.824219 8.988281 7.703125 8.988281 7.703125 C 8.988281 7.703125 9.066406 7.804688 9.050781 7.972656 C 9.03125 8.136719 8.804688 7.992188 8.804688 7.992188 C 8.804688 7.992188 8.839844 7.96875 8.90625 7.949219 C 8.972656 7.933594 8.894531 7.839844 8.84375 7.722656 C 8.832031 7.695312 8.816406 7.6875 8.804688 7.683594 Z M 10.207031 8.507812 C 10.1875 8.523438 10.167969 8.539062 10.144531 8.550781 C 9.960938 8.617188 9.8125 8.753906 9.8125 8.753906 C 9.8125 8.753906 10.035156 8.765625 10.183594 8.898438 C 10.195312 8.808594 10.203125 8.703125 10.203125 8.613281 C 10.203125 8.578125 10.207031 8.542969 10.203125 8.507812 Z "
     id="path2909" />
</svg>

<svg xmlns="http://www.w3.org/2000/svg" viewBox="0 0 16 16">
 <path d="m 1.73 2.637 c -0.227 0.043 -0.41 0.266 -0.41 0.496 l 0 9.566 c 0.004 0.258 0.234 0.492 0.496 0.496 l 12.203 0 c 0.258 -0.004 0.492 -0.238 0.492 -0.496 l 0 -8.207 c 0 -0.254 -0.234 -0.488 -0.492 -0.492 l -4.781 0 l 0 -0.867 c -0.008 -0.258 -0.238 -0.488 -0.496 -0.496 l -6.926 0 c -0.031 0 -0.059 0 -0.086 0 m 5.855 3.336 l 0.332 0 c 1.453 0 2.637 1.184 2.637 2.641 c 0 1.453 -1.184 2.637 -2.969 2.637 c -1.125 0 -2.309 -1.184 -2.309 -2.637 c 0 -1.457 1.184 -2.641 2.309 -2.641 m 0.043 0.371 c -0.102 0.016 -0.211 0.035 -0.309 0.063 l -0.309 0.516 c 0.023 0 0.047 0 0.078 0.02 c 0.168 0.094 0.242 0.176 0.293 0.188 c 0.047 0.008 0.254 -0.277 0.102 0.039 c -0.152 0.316 -0.215 0.426 -0.395 0.496 c -0.008 0 -0.027 -0.008 -0.039 0 c -0.047 0.051 -0.109 0.117 -0.188 0.184 c -0.164 0.148 -0.246 0.16 -0.246 0.309 c 0 0.148 0.012 0.277 -0.102 0.477 c -0.117 0.195 -0.215 0.199 -0.168 0.352 c 0.051 0.148 0.086 0.402 0 0.285 c -0.082 -0.113 -0.035 -0.336 -0.102 -0.207 c -0.059 0.117 -0.195 0.152 -0.207 0.27 c 0 0.016 -0.004 0.043 0 0.063 c 0.043 0.145 0.289 -0.051 0.289 0.063 c 0 0.113 -0.215 0.105 -0.164 0.207 c 0.051 0.098 0.246 -0.195 0.414 -0.145 c 0.164 0.047 0.055 0.078 0.203 0.145 c 0.152 0.063 0.23 0.125 0.23 0.227 c 0 0.098 0.48 0.063 0.43 0.227 c -0.051 0.164 -0.098 0.129 -0.246 0.309 c -0.082 0.102 -0.156 0.156 -0.207 0.207 c 0.07 0.051 0.086 0.066 0.164 0.039 c 0.105 -0.035 -0.02 -0.074 0.063 -0.125 c 0.02 -0.008 0.031 -0.027 0.043 -0.039 c 0.012 -0.008 0.016 -0.012 0.039 -0.02 c 0.051 -0.016 0.145 -0.02 0.371 -0.02 c 0.461 0 0.703 0.02 0.703 0.02 c 0 0 0.141 0 0 0.082 c -0.105 0.059 -0.305 0.156 -0.332 0.184 c 0.012 0 0.016 0.008 0.043 0 c 0.211 -0.059 0.516 -0.098 0.598 -0.121 c 0.035 -0.012 0.219 -0.117 0.371 -0.188 c 0.004 -0.016 0.016 -0.027 0.02 -0.039 l -0.02 0 c -0.117 -0.051 -0.219 -0.285 -0.184 -0.352 c 0.031 -0.066 0.121 -0.121 0.203 -0.289 c 0.086 -0.168 0.07 -0.027 -0.164 -0.332 c -0.234 -0.297 -0.359 0.02 -0.473 -0.078 c -0.117 -0.102 -0.355 -0.191 -0.453 -0.371 c -0.102 -0.184 -0.063 -0.051 -0.063 -0.25 c 0 -0.199 -0.008 -0.059 0.039 -0.227 c 0.051 -0.168 0.184 -0.191 0.352 -0.309 c 0.023 -0.016 0.039 -0.008 0.063 -0.02 c -0.039 -0.035 -0.082 -0.125 -0.188 -0.23 c 0 0 0.102 -0.211 0.188 -0.246 c 0.078 -0.031 0.137 -0.008 0.246 0.02 c 0.008 -0.016 -0.004 -0.02 0 -0.059 c 0.016 -0.137 -0.043 -0.063 -0.043 -0.145 c 0 -0.086 0.031 0.012 0.148 -0.02 c 0.117 -0.035 0.109 -0.281 0.223 -0.25 c 0.117 0.035 0.129 -0.035 0.23 -0.184 c 0.098 -0.152 -0.012 -0.078 -0.145 -0.145 c -0.137 -0.066 -0.008 0.109 -0.043 0.227 c -0.035 0.117 -0.133 0.043 -0.246 -0.207 c -0.117 -0.25 -0.027 -0.152 0.039 -0.352 c 0.012 -0.035 0.027 -0.063 0.043 -0.082 c -0.219 -0.094 -0.453 -0.141 -0.699 -0.164 c -0.004 0.012 0 0.008 0 0.02 c -0.027 0.223 -0.141 0.082 -0.188 0.102 c -0.047 0.027 -0.352 0.461 -0.352 0.414 c 0 -0.047 0.043 -0.121 0.043 -0.121 c 0 0 0.039 -0.203 0 -0.414 m 0.945 0.887 c 0.055 0.008 0.102 0.055 0.125 0.102 c 0.016 0.027 -0.004 0.035 -0.02 0.043 c 0 0 0.02 0.066 0.02 0.082 c 0 0.016 -0.043 0.02 -0.125 0 c -0.059 -0.016 0.004 -0.031 0.043 -0.063 l -0.082 0 c -0.027 0 -0.035 -0.016 -0.039 -0.02 c 0 0.004 -0.012 0.012 0 0.02 c 0.035 0.047 -0.012 0.008 -0.063 0.02 c -0.055 0.016 -0.008 -0.035 0.02 -0.082 c 0 0 0.035 0.031 0.043 0.043 c 0.008 -0.023 0.02 -0.066 0.02 -0.125 c 0.02 -0.008 0.043 -0.023 0.059 -0.02 m 1.258 0.145 c -0.082 0.063 -0.18 0.199 -0.266 0.289 c -0.152 0.148 0.082 0.168 0.164 0.184 c 0.086 0.016 0.164 -0.039 0.328 -0.039 c 0 -0.008 -0.016 -0.016 -0.02 -0.023 c -0.02 0.004 -0.035 0 -0.059 0 c -0.098 0 -0.047 -0.07 -0.023 -0.207 c -0.035 -0.066 -0.082 -0.141 -0.121 -0.203 m -1.031 0.309 c -0.035 -0.012 -0.082 0.023 -0.145 0.063 c 0.043 0.066 -0.094 0.238 -0.164 0.371 c -0.004 0.004 -0.02 0.016 -0.023 0.02 c 0.145 -0.023 0.367 0.02 0.867 0.145 c 0 0 0.191 -0.066 0.227 0 c 0.012 0.023 0.066 0.035 0.145 0.039 c 0.203 -0.078 0.102 -0.125 0.102 -0.285 c 0 -0.168 -0.258 0 -0.227 -0.086 c 0.035 -0.082 -0.027 -0.066 -0.145 -0.184 c -0.113 -0.117 -0.102 0.289 -0.184 0.207 c -0.086 -0.082 -0.09 -0.016 -0.125 -0.082 c -0.031 -0.066 -0.145 -0.188 -0.145 -0.188 c 0 0 0.078 0.102 0.063 0.27 c -0.02 0.164 -0.246 0.02 -0.246 0.02 c 0 0 0.035 -0.023 0.102 -0.043 c 0.066 -0.016 -0.012 -0.109 -0.063 -0.227 c -0.012 -0.027 -0.027 -0.035 -0.039 -0.039 m 1.402 0.824 c -0.02 0.016 -0.039 0.031 -0.063 0.043 c -0.184 0.066 -0.332 0.203 -0.332 0.203 c 0 0 0.223 0.012 0.371 0.145 c 0.012 -0.09 0.02 -0.195 0.02 -0.285 c 0 -0.035 0.004 -0.07 0 -0.105 Z" style="fill:#8e9da8"/>
</svg>
